X: 16082
T: Annie's Scots Measure
C: James Oswald
%R: reel
B: James Oswald "The Caledonian Pocket Companion" v.1 b.6 p.8 #2
S: https://ia800501.us.archive.org/18/items/caledonianpocket01rugg/caledonianpocket01rugg_bw.pdf
Z: 2020 John Chambers <jc:trillian.mit.edu>
M: C|
L: 1/8
K: Gdor
%%slurgraces 1
%%graceslurs 1
|: "_Brisk"\
D2G2 G2(FE) | D2B2 B3c | dB_ed cBAG | {G}^F3G (AG)(FE) |\
D2G2 G2(FE) | D2B2 B3c | dB_ed (cB)(AG) | D2G2 G2 :|
|:\
g2dB G2BG | D2cA B3c | d2Bd c2Ac | BGdB A^FD2 |\
g2dB G2BG | D2cA B3c | dbag ^fgcd | {c}B2(AG) G4 :|
|:\
Bcd_e fdcB | bagf _edcB | A3B (cA)(_ed) | (cB)(AG) ^F3E |\
D2^FA G2Bd | D2Ac B3c | d2g2 fdcd | {c}B2(AG) G4 :|


